src/topics/icons/upcase.svg

<svg height="108" preserveAspectRatio="xMidYMid" viewBox="0 0 512 108" width="512" xmlns="http://www.w3.org/2000/svg" xmlns:xlink="http://www.w3.org/1999/xlink"><linearGradient id="a" x1="50.116458%" x2="50.116458%" y1="-.093457%" y2="84.061104%"><stop offset="0" stop-color="#487bf6"/><stop offset="1" stop-color="#0093cb"/></linearGradient><path d="m0 68.7188624v-47.5344884c0-1.5063747 1.17162471-2.6779994 2.67799935-2.6779994h14.05949655c1.5063746 0 2.6779994 1.1716247 2.6779994 2.6779994v47.0323635c0 14.2268715 7.1971232 21.7587447 18.9133703 21.7587447 11.7162472 0 18.9133704-7.1971233 18.9133704-21.0892449v-47.7018633c0-1.5063747 1.1716247-2.6779994 2.6779994-2.6779994h14.0594965c1.5063747 0 2.6779994 1.1716247 2.6779994 2.6779994v46.8649885c0 26.6126185-14.8963714 39.6678655-38.4962406 39.6678655-23.7672442 0-38.1614907-13.2226219-38.1614907-38.9983656zm98.249101-47.5344884c0-1.5063747 1.1716247-2.6779994 2.677999-2.6779994h33.307617c20.92187 0 33.642367 12.385747 33.642367 30.2948676v.33475c0 20.25237-15.733246 30.7969924-35.483491 30.7969924h-14.728997v23.7672444c0 1.506374-1.171624 2.677999-2.677999 2.677999h-14.059497c-1.5063743 0-2.677999-1.171625-2.677999-2.677999zm34.479242 41.6763648c9.707747 0 15.231121-5.6907486 15.231121-13.2226218v-.1673749c0-8.7034979-6.025499-13.2226218-15.733246-13.2226218h-12.385747c-1.506375 0-2.678 1.1716247-2.678 2.6779993v21.5913698c0 1.5063746 1.171625 2.6779993 2.678 2.6779993h12.887872zm48.036613-.167375v-.3347499c0-24.9388689 18.745995-45.3586139 45.860739-45.3586139 15.398496 0 23.599869 5.0212488 31.968617 11.2141223 1.171625.8368748 1.339 2.5106243.502125 3.6822491l-7.866623 11.2141222c-.836875 1.1716247-2.510625 1.3389997-3.682249.6694999-6.694999-4.5191239-13.222622-8.8708729-21.25662-8.8708729-14.728997 0-25.440994 12.218372-25.440994 27.2821184v.6694998c0 15.0637463 12.218372 27.9516182 27.282118 27.2821183 8.201373-.3347499 13.557372-2.8453743 19.080746-8.201373 1.004249-1.0042497 2.510624-1.0042497 3.514874-.1673749l9.372997 8.201373c1.00425 1.0042497 1.171625 2.6779993.167375 3.6822491-8.033998 9.0382477-18.745995 14.2268717-34.646616 14.2268717-25.608369 0-44.856489-20.0849953-44.856489-45.1912392zm181.601831 28.1189932 9.205622-8.7034979c1.00425-1.0042498 2.678-.8368748 3.682249 0 6.694999 6.3602485 14.394247 8.368748 23.59987 8.368748 7.866623 0 12.720497-3.1801243 12.720497-8.201373v-.33475c0-4.8538738-3.01275-7.3644982-17.741746-11.2141222-17.741746-4.5191239-29.123243-9.3729977-29.123243-26.7799935v-.3347499c0-15.9006211 12.720497-26.4452435 30.796992-26.4452435 11.883623 0 22.093495 3.5148741 30.629618 9.5403726 1.171625.8368748 1.339 2.5106244.6695 3.6822491l-7.197123 10.3772475c-.836875 1.1716247-2.34325 1.3389997-3.514875.6694998-7.029748-4.5191239-13.892121-7.1971232-20.754495-7.1971232-7.364498 0-11.214122 3.3474992-11.214122 7.6992481v.3347499c0 5.6907486 3.682249 7.6992481 18.913371 11.5488722 17.741745 4.6864989 27.784243 11.0467473 27.784243 26.2778686v.3347499c0 17.4069958-13.222622 27.2821185-32.303367 27.2821185-12.385747 0-26.779994-3.514874-35.985617-12.887872-1.338999-1.3389997-1.338999-3.0127493-.167374-4.016999zm82.683229-69.627983c0-1.5063747 1.171625-2.6779994 2.678-2.6779994h60.924485c1.506374 0 2.677999 1.1716247 2.677999 2.6779994v11.8836221c0 1.5063746-1.171625 2.6779993-2.677999 2.6779993h-41.84374c-1.506375 0-2.677999 1.1716247-2.677999 2.6779994v12.5531219c0 1.5063746 1.171624 2.6779994 2.677999 2.6779994h36.152991c1.506375 0 2.678 1.1716247 2.678 2.6779993v11.8836221c0 1.5063746-1.171625 2.6779993-2.678 2.6779993h-36.152991c-1.506375 0-2.677999 1.1716248-2.677999 2.6779994v13.2226218c0 1.5063746 1.171624 2.6779993 2.677999 2.6779993h42.51324c1.506374 0 2.677999 1.1716247 2.677999 2.6779994v11.8836223c0 1.506374-1.171625 2.677999-2.677999 2.677999h-61.593985c-1.506375 0-2.678-1.171625-2.678-2.677999z" fill="#5f5f5f"/><path d="m307.526601 1.73421956c-9.691894 14.03653564-37.263661 54.64222794-46.120046 68.51166204-1.169711 1.6710161-.668407 4.0104387.835508 5.3472516 2.172321 1.6710162 5.18015 4.0104388 7.352471 5.8485565 1.671016 1.1697113 3.843337 1.1697113 5.514353-.1671016 15.874654-13.7023324 19.049584-16.2088566 28.741478-25.0652422 3.843337-3.5091339 9.691894-3.5091339 13.535231 0 12.699723 11.3629098 18.381177 15.7075518 28.908579 25.2323438 1.503915 1.336813 3.843337 1.5039146 5.347252.1671017 2.339422-1.8381178 5.514353-4.1775404 7.686674-5.8485566 1.671016-1.3368129 2.005219-3.5091339.835508-5.3472516-9.023487-14.0365357-36.428152-54.4751264-46.120046-68.51166203-1.336812-2.50652422-4.845946-2.50652422-6.516962-.16710161z" fill="url(#a)"/></svg>

<?xml version="1.0" encoding="UTF-8" standalone="no"?>
<svg width="512px" height="108px" viewBox="0 0 512 108" version="1.1" xmlns="http://www.w3.org/2000/svg" xmlns:xlink="http://www.w3.org/1999/xlink" preserveAspectRatio="xMidYMid">
    <defs>
        <linearGradient x1="50.1164581%" y1="-0.0934574399%" x2="50.1164581%" y2="84.0611038%" id="linearGradient-1">
            <stop stop-color="#487BF6" offset="0%"></stop>
            <stop stop-color="#0093CB" offset="100%"></stop>
        </linearGradient>
    </defs>
	<g>
		<path d="M0,68.7188624 L0,21.184374 C0,19.6779993 1.17162471,18.5063746 2.67799935,18.5063746 L16.7374959,18.5063746 C18.2438705,18.5063746 19.4154953,19.6779993 19.4154953,21.184374 L19.4154953,68.2167375 C19.4154953,82.443609 26.6126185,89.9754822 38.3288656,89.9754822 C50.0451128,89.9754822 57.242236,82.7783589 57.242236,68.8862373 L57.242236,21.184374 C57.242236,19.6779993 58.4138607,18.5063746 59.9202354,18.5063746 L73.9797319,18.5063746 C75.4861066,18.5063746 76.6577313,19.6779993 76.6577313,21.184374 L76.6577313,68.0493625 C76.6577313,94.661981 61.7613599,107.717228 38.1614907,107.717228 C14.3942465,107.717228 0,94.4946061 0,68.7188624 Z M98.249101,21.184374 C98.249101,19.6779993 99.4207257,18.5063746 100.9271,18.5063746 L134.234717,18.5063746 C155.156587,18.5063746 167.877084,30.8921216 167.877084,48.8012422 L167.877084,49.1359922 C167.877084,69.3883622 152.143838,79.9329846 132.393593,79.9329846 L117.664596,79.9329846 L117.664596,103.700229 C117.664596,105.206603 116.492972,106.378228 114.986597,106.378228 L100.9271,106.378228 C99.4207257,106.378228 98.249101,105.206603 98.249101,103.700229 L98.249101,21.184374 Z M132.728343,62.8607388 C142.43609,62.8607388 147.959464,57.1699902 147.959464,49.638117 L147.959464,49.4707421 C147.959464,40.7672442 141.933965,36.2481203 132.226218,36.2481203 L119.840471,36.2481203 C118.334096,36.2481203 117.162471,37.419745 117.162471,38.9261196 L117.162471,60.5174894 C117.162471,62.023864 118.334096,63.1954887 119.840471,63.1954887 L132.728343,63.1954887 L132.728343,62.8607388 Z M180.764956,62.6933638 L180.764956,62.3586139 C180.764956,37.419745 199.510951,17 226.625695,17 C242.024191,17 250.225564,22.0212488 258.594312,28.2141223 C259.765937,29.0509971 259.933312,30.7247466 259.096437,31.8963714 L251.229814,43.1104936 C250.392939,44.2821183 248.719189,44.4494933 247.547565,43.7799935 C240.852566,39.2608696 234.324943,34.9091206 226.290945,34.9091206 C211.561948,34.9091206 200.849951,47.1274926 200.849951,62.191239 L200.849951,62.8607388 C200.849951,77.9244851 213.068323,90.812357 228.132069,90.1428571 C236.333442,89.8081072 241.689441,87.2974828 247.212815,81.9414841 C248.217064,80.9372344 249.723439,80.9372344 250.727689,81.7741092 L260.100686,89.9754822 C261.104936,90.9797319 261.272311,92.6534815 260.268061,93.6577313 C252.234063,102.695979 241.522066,107.884603 225.621445,107.884603 C200.013076,107.884603 180.764956,87.7996077 180.764956,62.6933638 Z M362.366787,90.812357 L371.572409,82.1088591 C372.576659,81.1046093 374.250409,81.2719843 375.254658,82.1088591 C381.949657,88.4691076 389.648905,90.4776071 398.854528,90.4776071 C406.721151,90.4776071 411.575025,87.2974828 411.575025,82.2762341 L411.575025,81.9414841 C411.575025,77.0876103 408.562275,74.5769859 393.833279,70.7273619 C376.091533,66.208238 364.710036,61.3543642 364.710036,43.9473684 L364.710036,43.6126185 C364.710036,27.7119974 377.430533,17.167375 395.507028,17.167375 C407.390651,17.167375 417.600523,20.6822491 426.136646,26.7077476 C427.308271,27.5446224 427.475646,29.218372 426.806146,30.3899967 L419.609023,40.7672442 C418.772148,41.9388689 417.265773,42.1062439 416.094148,41.436744 C409.0644,36.9176201 402.202027,34.2396208 395.339653,34.2396208 C387.975155,34.2396208 384.125531,37.58712 384.125531,41.9388689 L384.125531,42.2736188 C384.125531,47.9643674 387.80778,49.9728669 403.038902,53.822491 C420.780647,58.5089899 430.823145,64.8692383 430.823145,80.1003596 L430.823145,80.4351095 C430.823145,97.8421053 417.600523,107.717228 398.519778,107.717228 C386.134031,107.717228 371.739784,104.202354 362.534161,94.829356 C361.195162,93.4903563 361.195162,91.8166067 362.366787,90.812357 Z M445.050016,21.184374 C445.050016,19.6779993 446.221641,18.5063746 447.728016,18.5063746 L508.652501,18.5063746 C510.158875,18.5063746 511.3305,19.6779993 511.3305,21.184374 L511.3305,33.0679961 C511.3305,34.5743707 510.158875,35.7459954 508.652501,35.7459954 L466.808761,35.7459954 C465.302386,35.7459954 464.130762,36.9176201 464.130762,38.4239948 L464.130762,50.9771167 C464.130762,52.4834913 465.302386,53.6551161 466.808761,53.6551161 L502.961752,53.6551161 C504.468127,53.6551161 505.639752,54.8267408 505.639752,56.3331154 L505.639752,68.2167375 C505.639752,69.7231121 504.468127,70.8947368 502.961752,70.8947368 L466.808761,70.8947368 C465.302386,70.8947368 464.130762,72.0663616 464.130762,73.5727362 L464.130762,86.795358 C464.130762,88.3017326 465.302386,89.4733573 466.808761,89.4733573 L509.322001,89.4733573 C510.828375,89.4733573 512,90.644982 512,92.1513567 L512,104.034979 C512,105.541353 510.828375,106.712978 509.322001,106.712978 L447.728016,106.712978 C446.221641,106.712978 445.050016,105.541353 445.050016,104.034979 L445.050016,21.184374 Z" fill="#5F5F5F"></path>
		<path d="M307.526601,1.73421956 C297.834707,15.7707552 270.26294,56.3764475 261.406555,70.2458816 C260.236844,71.9168977 260.738148,74.2563203 262.242063,75.5931332 C264.414384,77.2641494 267.422213,79.603572 269.594534,81.4416897 C271.26555,82.611401 273.437871,82.611401 275.108887,81.2745881 C290.983541,67.5722557 294.158471,65.0657315 303.850365,56.2093459 C307.693702,52.700212 313.542259,52.700212 317.385596,56.2093459 C330.085319,67.5722557 335.766773,71.9168977 346.294175,81.4416897 C347.79809,82.7785027 350.137512,82.9456043 351.641427,81.6087914 C353.980849,79.7706736 357.15578,77.431251 359.328101,75.7602348 C360.999117,74.4234219 361.33332,72.2511009 360.163609,70.4129832 C351.140122,56.3764475 323.735457,15.9378568 314.043563,1.90132117 C312.706751,-0.605203047 309.197617,-0.605203047 307.526601,1.73421956 L307.526601,1.73421956 L307.526601,1.73421956 Z" fill="url(#linearGradient-1)"></path>
	</g>
</svg>
